src/assets/bold/lm-sliders-bold.svg

<svg width="24" height="24" viewBox="0 0 24 24" fill="none" xmlns="http://www.w3.org/2000/svg" fill="currentColor">
<path d="M14.1563 5.65847L20.25 5.65847C20.4489 5.65847 20.6397 5.58151 20.7803 5.4445C20.921 5.3075 21 5.12168 21 4.92793C21 4.73417 20.921 4.54835 20.7803 4.41135C20.6397 4.27435 20.4489 4.19738 20.25 4.19738L14.1563 4.19738C13.991 3.5688 13.6157 3.01167 13.0895 2.61381C12.5633 2.21595 11.9161 2 11.25 2C10.5839 2 9.93669 2.21595 9.41048 2.61381C8.88428 3.01167 8.50898 3.5688 8.34375 4.19738H3.75C3.55109 4.19738 3.36032 4.27434 3.21967 4.41135C3.07902 4.54835 3 4.73417 3 4.92792C3 5.12168 3.07902 5.3075 3.21967 5.4445C3.36032 5.58151 3.55109 5.65847 3.75 5.65847H8.34375C8.50898 6.28705 8.88428 6.84418 9.41048 7.24204C9.93669 7.6399 10.5839 7.85585 11.25 7.85585C11.9161 7.85585 12.5633 7.6399 13.0895 7.24204C13.6157 6.84418 13.991 6.28705 14.1563 5.65847ZM9.75 4.92793C9.75 4.63895 9.83797 4.35646 10.0028 4.11618C10.1676 3.87591 10.4019 3.68863 10.676 3.57805C10.9501 3.46746 11.2517 3.43853 11.5426 3.4949C11.8336 3.55128 12.1009 3.69043 12.3107 3.89477C12.5204 4.09911 12.6633 4.35945 12.7212 4.64288C12.7791 4.9263 12.7494 5.22008 12.6358 5.48706C12.5223 5.75404 12.33 5.98224 12.0834 6.14278C11.8367 6.30333 11.5467 6.38902 11.25 6.38902C10.8522 6.38902 10.4706 6.23509 10.1893 5.96108C9.90804 5.68707 9.75 5.31543 9.75 4.92793ZM18.6562 12.2334H20.25C20.4489 12.2334 20.6397 12.1564 20.7803 12.0194C20.921 11.8824 21 11.6966 21 11.5029C21 11.3091 20.921 11.1233 20.7803 10.9863C20.6397 10.8493 20.4489 10.7723 20.25 10.7723H18.6562C18.491 10.1437 18.1157 9.58661 17.5895 9.18875C17.0633 8.79089 16.4161 8.57494 15.75 8.57494C15.0839 8.57494 14.4367 8.79089 13.9105 9.18875C13.3843 9.58661 13.009 10.1437 12.8438 10.7723H3.75C3.55109 10.7723 3.36032 10.8493 3.21967 10.9863C3.07902 11.1233 3 11.3091 3 11.5029C3 11.6966 3.07902 11.8824 3.21967 12.0194C3.36032 12.1564 3.55109 12.2334 3.75 12.2334H12.8438C13.009 12.862 13.3843 13.4191 13.9105 13.817C14.4367 14.2148 15.0839 14.4308 15.75 14.4308C16.4161 14.4308 17.0633 14.2148 17.5895 13.817C18.1157 13.4191 18.491 12.862 18.6562 12.2334ZM14.25 11.5029C14.25 11.2139 14.338 10.9314 14.5028 10.6911C14.6676 10.4508 14.9019 10.2636 15.176 10.153C15.4501 10.0424 15.7517 10.0135 16.0426 10.0698C16.3336 10.1262 16.6009 10.2654 16.8107 10.4697C17.0204 10.6741 17.1633 10.9344 17.2212 11.2178C17.2791 11.5012 17.2494 11.795 17.1358 12.062C17.0223 12.329 16.83 12.5572 16.5834 12.7177C16.3367 12.8783 16.0467 12.964 15.75 12.964C15.3522 12.964 14.9706 12.81 14.6893 12.536C14.408 12.262 14.25 11.8904 14.25 11.5029ZM8.25 21C8.9151 20.9994 9.56121 20.7839 10.0871 20.3873C10.613 19.9907 10.989 19.4354 11.1562 18.8084H20.25C20.4489 18.8084 20.6397 18.7314 20.7803 18.5944C20.921 18.4574 21 18.2716 21 18.0778C21 17.8841 20.921 17.6982 20.7803 17.5612C20.6397 17.4242 20.4489 17.3473 20.25 17.3473H11.1562C10.991 16.7187 10.6157 16.1615 10.0895 15.7637C9.56331 15.3658 8.91613 15.1499 8.25 15.1499C7.58387 15.1499 6.93669 15.3658 6.41048 15.7637C5.88428 16.1615 5.50898 16.7187 5.34375 17.3473H3.75C3.55109 17.3473 3.36032 17.4242 3.21967 17.5612C3.07902 17.6982 3 17.8841 3 18.0778C3 18.2716 3.07902 18.4574 3.21967 18.5944C3.36032 18.7314 3.55109 18.8084 3.75 18.8084H5.34375C5.51096 19.4354 5.88697 19.9907 6.41288 20.3873C6.93879 20.7839 7.5849 20.9994 8.25 21ZM6.75 18.0778C6.75 17.7888 6.83797 17.5063 7.0028 17.2661C7.16762 17.0258 7.40188 16.8385 7.67597 16.7279C7.95006 16.6173 8.25166 16.5884 8.54263 16.6448C8.83361 16.7012 9.10088 16.8403 9.31066 17.0447C9.52044 17.249 9.6633 17.5093 9.72118 17.7928C9.77906 18.0762 9.74935 18.37 9.63582 18.6369C9.52229 18.9039 9.33003 19.1321 9.08336 19.2927C8.83668 19.4532 8.54667 19.5389 8.25 19.5389C7.85218 19.5389 7.47064 19.385 7.18934 19.111C6.90804 18.8369 6.75 18.4653 6.75 18.0778Z" fill="black"/>
</svg>

<svg xmlns="http://www.w3.org/2000/svg" width="24" height="24" fill="currentColor" viewBox="0 0 24 24">
  <path d="M14.156 5.658h6.094a.76.76 0 0 0 .53-.214.72.72 0 0 0 0-1.033.76.76 0 0 0-.53-.214h-6.094a2.918 2.918 0 0 0-1.067-1.583A3.052 3.052 0 0 0 11.25 2c-.666 0-1.313.216-1.84.614a2.918 2.918 0 0 0-1.066 1.583H3.75a.76.76 0 0 0-.53.214.721.721 0 0 0 0 1.034.76.76 0 0 0 .53.213h4.594c.165.629.54 1.186 1.066 1.584a3.052 3.052 0 0 0 1.84.614c.666 0 1.313-.216 1.84-.614a2.918 2.918 0 0 0 1.066-1.584Zm-4.406-.73c0-.289.088-.572.253-.812.165-.24.399-.427.673-.538a1.537 1.537 0 0 1 1.635.317 1.429 1.429 0 0 1 .325 1.592 1.47 1.47 0 0 1-.553.656 1.529 1.529 0 0 1-1.894-.182 1.442 1.442 0 0 1-.439-1.033Zm8.906 7.305h1.594a.76.76 0 0 0 .53-.214.72.72 0 0 0 0-1.033.76.76 0 0 0-.53-.214h-1.594A2.917 2.917 0 0 0 17.59 9.19a3.052 3.052 0 0 0-1.84-.614c-.666 0-1.313.216-1.84.614a2.917 2.917 0 0 0-1.066 1.583H3.75a.76.76 0 0 0-.53.214.721.721 0 0 0 0 1.033.76.76 0 0 0 .53.214h9.094c.165.629.54 1.186 1.067 1.584a3.052 3.052 0 0 0 1.839.614c.666 0 1.313-.216 1.84-.614a2.918 2.918 0 0 0 1.066-1.584Zm-4.406-.73c0-.29.088-.572.253-.812.165-.24.399-.427.673-.538.274-.11.576-.14.867-.083.29.056.558.195.768.4a1.429 1.429 0 0 1 .325 1.592 1.47 1.47 0 0 1-.553.656 1.528 1.528 0 0 1-1.894-.182 1.442 1.442 0 0 1-.439-1.033ZM8.25 21c.665 0 1.311-.216 1.837-.613a2.924 2.924 0 0 0 1.07-1.579h9.093a.76.76 0 0 0 .53-.214.72.72 0 0 0 0-1.033.76.76 0 0 0-.53-.214h-9.094a2.917 2.917 0 0 0-1.067-1.583 3.051 3.051 0 0 0-1.839-.614c-.666 0-1.313.216-1.84.614a2.917 2.917 0 0 0-1.066 1.583H3.75a.76.76 0 0 0-.53.214.721.721 0 0 0 0 1.033.76.76 0 0 0 .53.214h1.594a2.924 2.924 0 0 0 1.069 1.58A3.057 3.057 0 0 0 8.25 21Zm-1.5-2.922c0-.29.088-.572.253-.812.165-.24.399-.427.673-.538a1.537 1.537 0 0 1 1.635.317 1.429 1.429 0 0 1 .325 1.592 1.47 1.47 0 0 1-.553.656 1.529 1.529 0 0 1-1.894-.182 1.442 1.442 0 0 1-.439-1.033Z"/>
</svg>
